src/images/SVG/bin.svg

<!-- Generated by IcoMoon.io -->
<svg version="1.1" xmlns="http://www.w3.org/2000/svg" width="32" height="32" viewBox="0 0 32 32">
<title>bin</title>
<path d="M4 10v20c0 1.1 0.9 2 2 2h18c1.1 0 2-0.9 2-2v-20h-22zM10 28h-2v-14h2v14zM14 28h-2v-14h2v14zM18 28h-2v-14h2v14zM22 28h-2v-14h2v14z"></path>
<path d="M26.5 4h-6.5v-2.5c0-0.825-0.675-1.5-1.5-1.5h-7c-0.825 0-1.5 0.675-1.5 1.5v2.5h-6.5c-0.825 0-1.5 0.675-1.5 1.5v2.5h26v-2.5c0-0.825-0.675-1.5-1.5-1.5zM18 4h-6v-1.975h6v1.975z"></path>
</svg>

<svg xmlns="http://www.w3.org/2000/svg" width="32" height="32"><path d="M4 10v20c0 1.1.9 2 2 2h18c1.1 0 2-.9 2-2V10H4zm6 18H8V14h2v14zm4 0h-2V14h2v14zm4 0h-2V14h2v14zm4 0h-2V14h2v14zm4.5-24H20V1.5c0-.825-.675-1.5-1.5-1.5h-7c-.825 0-1.5.675-1.5 1.5V4H3.5C2.675 4 2 4.675 2 5.5V8h26V5.5c0-.825-.675-1.5-1.5-1.5zM18 4h-6V2.025h6V4z"/></svg>
